X:1
T:Gloria (Bucknall), 77.77.77
T:Cedric Bucknall, 1889
T:Gloria (Bucknall), 77.77.77
T:Public Domain
C:Cedric Bucknall, 1889
Z:Public Domain
%%score ( 1 2 ) ( 3 4 )
L:1/8
M:none
K:Eb
V:1 treble 
V:2 treble 
V:3 bass 
V:4 bass 
V:1
 E3 [EF] [EG]2 [EG]2 | [EG]2 [EA]2 E2 D2 | E2 (C[Dc]) [EB]2 [B,E]2 | [B,D]2 [CE]2 [DF]4 | %4
 [EG]3 [DA] [EB]2 [AB]2 | [GB]2 [Gc]2 G2 ^F2 | [Ge]2 [Gd]2 [Gc]2 (B=A) | [GB]2 [^F=A]2 G4 | %8
 E2 z c [=EB]2 G2 | [FB]2 [FA]2 F2 =E2 | [FA]2 [CG]2 [DF]2 (EF) | [EG]2 [DF]2 E4 |] %12
V:2
 E3 x5 | x4 B4 | c3 x5 | x8 | x8 | x4 d4 | x6 G2 | x4 G4 | c3 (=E2 x G2) | x4 G4 | x6 E2 | x4 E4 |] %12
V:3
 [E,G,]3 [E,A,] [E,B,]2 [D,B,]2 | [C,C]2 [C,E,]2 [B,,F,]4 | [A,,A,]2 A,2 [G,B,]2 [G,B,]2 | %3
 [F,A,]2 [E,G,]2 [B,,B,]4 | [E,B,]3 [F,B,] [G,B,]2 [F,C]2 | [E,E]2 [E,G,]2 [D,=A,]4 | %6
 [C,C]2 [F,=B,]2 [E,C]2 [C,E]2 | [D,D]2 [D,C]2 [G,B,]4 | [A,C]2 [A,C]2 [G,C]2 [=E,C]2 | %9
 [F,C]2 [F,C]2 [C,C]4 | [F,C]2 [E,G,]2 [=B,,G,]2 (G,A,) | [B,,B,]2 [B,,A,]2 [E,G,]4 |] %12
V:4
 x8 | x8 | x2 A,2 x4 | x8 | x8 | x8 | x8 | x8 | x8 | x8 | x6 C,2 | x8 |] %12

